X:1
T:Blessed is the Man
T:Blessed is the Man
T:Блажен муж (Blazhen Muzh)
T:Pavel Chesnokov
T:Psalm I, II & III
T:Blessed is the man, who walks not in the counsel of the wicked. For the Lord knows the way of the righteous, but the way of the wicked will perish. Serve the Lord with fear and rejoice in Him with trembling. Blessed are all who take refuge in him. Salvation is of the Lord; and Thy blessing is upon Thy people. Glory to the Father, and to the Son, and to the Holy Spirit, both now and ever and unto the ages of ages. Amen. Hallelujah Glory to Thee O God! Hallelujah! 
T:Blazhen muzh, izhe ne ide na sovet nechestivykh. Jako vest' Gospod' put' pravednykh, i put' nechestivykh pogibnet. Rabotajte Gospodevi so strakhom i radujtesja Emu s trepetom. Blazheni vsi nadejushchiisja Nan'. Gospodne est' spasenie i na ljudekh Tvoikh blagoslovenie Tvoe. Slava Otcu i Synu i Svjatomu Dukhu, i nyne i prisno i vo veki vekov. Amin'. Allilujia Slava Tebe Bozhe Allilujia 
T:Блажен муж, иже не иде на совет нечестивых. Яко весть Господь путь праведных, и путь нечестивых погибнет. Работайте Господеви со страхом и радуйтеся Ему с трепетом. Блажени вси надеющиися Нань. Господне есть спасение и на людех Твоих благословение Твое. Слава Отцу и Сыну и Святому Духу, и ныне и присно и во веки веков. Аминь Аллилуиа Слава Тебе, Боже .Аллилуиа 
C:Pavel Chesnokov
Z:Psalm I, II & III
%%score 1 ( 2 3 4 ) ( 5 6 7 ) { ( 8 11 13 ) | ( 9 10 12 ) }
L:1/8
Q:1/4=44
M:2/4
K:Eb
V:1 bass nm="Bass solo" snm="B."
V:2 treble nm="Soprano\nAlto" snm="S.\nA."
V:3 treble 
V:4 treble 
V:5 bass nm="Tenor\nBass" snm="T.\nB."
V:6 bass 
V:7 bass 
V:8 treble nm="Piano" snm="Pno."
V:11 treble 
V:13 treble 
V:9 bass 
V:10 bass 
V:12 bass 
V:1
 z | z4 | z2 z!mf! C, | (G,3 A,) | G,2 z2 | G,2 G, B, | A, G, F, C, | E,2 D, E, | %8
w: ||Bla|zhen *|muzh,|i zhe nye|i zhe na so|vyet nye ches|
!>(! C,2 C,2-!>)! | C, z z2 | z4 | z2!mf! G, G, | C _B, G, B, | A, G, F, C, |!<(! E,2 E, F,!<)! | %15
w: ti vykh.|_||Ya ko|vest' Gos pod' put'|pra vyed nykh, i|put' nye ches|
 G,2 G,!f! C | (E3 D) | C2 z2 | z4 | z2!f! B,2 | (B,C) G, A, | B, B,/ B,/ F, F, | G,2 G, =A, | %23
w: ti vykh po|gib _|nyet||Ra|bo _ taj te|Gos po dye vi so|stra khom, i|
 =B,2 B, =A, | =B, C D2 | (=A,2 DC |!>(! B,3/2) G,/ G,2!>)! | z4 | z4 | z4 | z2 z!mf! G, | %31
w: ra duj tye|sja E mu|s trye- * *|* pye tom.||||Bla|
 G, G, G, B, | A,2 A, G, | F,2 C,2 | (E,2 C,2-) | C, z z2 | z4 | z2 z!mf! G, | C B, G, B, | %39
w: zhe ni vsi na|de ju shchi|i sja|Nan'. *|||Gos|pod nye yest' spa|
 A, G, F,2 | z2!<(! C, C, | E,2 E, F, | G, G, G, C!<)! | E3 C | C2 C2 |!>(! C4-!>)! | C z z2 | z4 | %48
w: sye ni ye|i na|lju dekh Tvo|ikh bla go slo|vye ni|ye Tvo|ye|||
 z4 |!mf! C,2 C, C, |!<(! C,2!<)! D,2 | E, E, E, E, | E,2 F,2 | G,2 G, B, | A,2 A, G, | %55
w: |Sla va Ot|cu i|Sy nu i Svja|to mu|Du khu i|ny ne i|
 F, F, F, G, | A,2 A, B, | C2 C2 | C4- | C z z2 | z4 | z2!mf!!<(! G, G,!<)! | (G,2 A,2) | %63
w: pris no i vo|ve ki ve|kov. A|min'|||Al li|luj _|
 G,2- G, z | z4 | z4 |!mf! G, G, G, G, |!>(! G,2!>)! G,2- | G, z!mf!!<(! G, G,!<)! | %69
w: ia *|||Sla va Te be|Bo zhe|* Al li|
 (C3!>(! B,)!>)! | C2- C z | z4 | z4 |!mf!!<(! B, B, B, B,!<)! | =B,2 B,2 | z2!f! C C | (E3 D) | %77
w: luj _|ia *|||Sla va Te be,|Bo zhe|Al li|luj _|
!>(! C4-!>)! | C z z2 | z4 |!f! B, B, B, B, | =B,2 B,2 | !>!C2 !>!C2 | !>!C2 !>!C2 | !>!C4- | %85
w: ia.|_||Sla va Te be,|Bo zhe.|Sla va|Te be,|Bo|
!>(! (!>!C4!>)! |!mf!!>(! C,4)!>)! |!p!!>(! C,2- C, z!>)! | z4 | z4 | z4 | z3 |] %92
w: _||zhe. *|||||
V:2
!p! [EG] | [EG]4 | G4- | G z (G F) | (G3 A) | G2- G z | (cB) A G | (F3 C | G) G!p!!<(! G B!<)! | %9
w: Bla|zhen|muzh,|_ bla _|zhen _|muzh, *||||
!>(! B!>)! A!<(! A!<)! G |!>(! G!>)! F!<(! E!<)! F |!>(! G4!>)! | [EG] z [Ec][Gc] | c2- c z | %14
w: |||ia, * *||
!<(! c2- c z!<)! | c2- c z |!mf!!>(! c4-!>)! | c2!p! B A |!>(! G!>)! B!<(! A!<)! G | %19
w: |||||
!>(! G!>)! F!<(! E!<)! F | (G2 Bc | [DB]2 [Ac]2 | B2) G z | d=edc | =B=ABd | dc =B[=Ad] | %26
w: |||||||
!>(! [=Bd]!>)! G!p!!<(! G!<)! G |!>(! G!>)! G!<(! G!<)! B |!>(! B!>)! A!<(! A!<)! G | %29
w: |||
!>(! G!>)! F!<(! E!<)! F | G4 | G2- G z | z2 z!p! [EB] |!>(! [FA]2 [FA]!>)! z | z2!p!!<(! G!<)! B | %35
w: |||Bla|zhe ni|Al li|
!>(! B!>)! A!<(! A!<)! G |!>(! G!>)! F!<(! E!<)! F |!>(! G4!>)! | G2 z!p! c | c2 c2 | c4- | %41
w: luj ia, a li|luj ia, al li|luj|ia. Gos|pod nye|est'|
 c3!<(! c | c!<)! c c z | z!mf! c c c | c c c c | c2!p!!<(! G!<)! B |!>(! B!>)! A!<(! A!<)! G | %47
w: _ spa|sye ni ye,|bla go slo|vye ni ye Tvo|ye. Al li|luj ia, al li|
!>(! G!>)! F!<(! E!<)! F |!>(! G4!>)! | (G2 F) z | z4 | z4 | z4 |!p!!>(! G2!>)! G z | %54
w: luj ia, al li|luj|ia. _|||||
 z2 z!p!!<(! B!<)! |!>(! A2!>)! A z | z4 | z2 c2 | c2!p!!<(! G!<)! B |!>(! B!>)! A!<(! A!<)! G | %60
w: ||||||
!>(! G!>)! F!<(! E!<)! F |!>(! G4!>)! | [EG]2 z2 | z2!p!!<(! G!<)! B |!>(! B!>)! A!<(! A!<)! G | %65
w: ||ia|Al li|luj ia, al li|
!>(! G!>)! F!<(! E!<)! F |!>(! G2!>)! G2 | G G G G | G2 G2- | G z z2 | z2!p!!<(! G!<)! B | %71
w: luj ia, al li|luj ia.|Sla va Te be,|Bo zhe||Al li|
!>(! B!>)! A!<(! A!<)! G |!>(! G!>)! F!<(! E!<)! F |!>(! G2!>)! G2 | G G G G |!>(! G2!>)! G2- | %76
w: luj ia, al li|luj ia, al li|luj ia|Sla va Te be,|Bo zhe.|
 G z z2 | z2!f! [Ece] [Gcg] | [Gcg] [Fcf] [Fcf] [EBe] | [Fdf] [Fdf] [Ece] [Fdf] | [Geg]2 [Geg]2 | %81
w: |Al li|luj ia, al li|luj ia, al li|luj ia.|
 [Gdg] [Gdg] [Gdg] [Gdg] | ([G-eg-]4 |!>(! [Gcg]2)!>)! [Fcf]2 |!mf! (([Ee]2 [Dd]2 | %85
w: Sla va Te be,|Bo-|* zhe,|sla- *|
!>(! [Cc]2))!>)! [Cc]2 | G4- |!>(! G2!>)! F2 |!p! !tenuto!E2 !tenuto!E2 | !tenuto!E2 !tenuto!D2 | %90
w: * va,|sla-|* va,|sla va|Te be,|
!>(! !tenuto!C4!>)! |!>(! C2- C!>)! |] %92
w: Bo|zhe *|
V:3
 x | x4 | E4- | E x (E D) | (E3 D) | E2- E z | C2 C C | (C4 | E) E E G | G F F E | D D C D | %11
w: ||||||i zhe nye|i|_ dye... Al li|luj ia, al li|luj ia, al li|
 (E2 F2) | x4 | F2- F z | E2- E z | E2- E z | E4- | E2 E E | E G F E | D D C D | (E4 | x4 | %22
w: luj _||ia *||||* Al li|luj ia, al li|luj ia, al li|luj-||
 G2) G z | G4 | G4 | G2 ^F2 | G G D F | F E E G | G F F E | D D C D | (E2 F2) | E2- E z | x4 | x4 | %34
w: * ia,|al-||* li|luj ia Al li|luj ia, al li|luj ia, al li|luj ia, al li|luj _|ia. *|||
 x2 E G | G F F E | D D C D | (E2 F2) | E2 x C | C2 C2 | C4- | C3 C | C C C z | x C C C | C C C C | %45
w: |||||||||||
 C2 E G | G F F E | D D C D | (E2 F2) | (E2 D) z | x4 | x4 | x4 | E2 E z | x3 E | F2 F z | x4 | %57
w: ||||||||Sla va...|i|ny ne...||
 x2 D2 | E2 E G | G F F E | D D C D | (E2 F2) | x4 | x2 E G | G F F E | D D C D | E2 E2 | F F F F | %68
w: A|min'. Al li|luj ia, al li|luj ia, al li|luj _|||||||
 E2 E2- | E x3 | x2 E G | G F F E | D D C D | E2 E2 | F F F F | E2 E2- | E x3 | z2 c B | A A A B | %79
w: |||||||||||
 B B B B | B2 B2 | B B B B | (c2 _B2 | A2) A2 | G4- | G2 F2 | (E2 D2 | C2) C2 | C2 B,2 | A,2 B,2 | %90
w: |||||||||||
 C4 | C2- C |] %92
w: ||
V:4
 x | x4 | x4 | x4 | x4 | x4 | x4 | x4 | x4 | x4 | x4 | x4 | x4 | x4 | x4 | x4 | x4 | x4 | x4 | x4 | %20
 x4 | x4 | x4 | x4 | x4 | x4 | x4 | x4 | x4 | x4 | x4 | x4 | x4 | x4 | x4 | x4 | x4 | x4 | x4 | %39
 x4 | x4 | x4 | x4 | x4 | x4 | x4 | x4 | x4 | x4 | x4 | x4 | x4 | x4 | x4 | x4 | x4 | x4 | x4 | %58
 x4 | x4 | x4 | x4 | x4 | x4 | x4 | x4 | x4 | x4 | x4 | x4 | x4 | x4 | x4 | x4 | x4 | x4 | x4 | %77
 x4 | x4 | x4 | x4 | x4 | x4 | x4 | (c2 B2 | A2) A2 | x4 | x4 | x4 | x4 | x4 | x3 |] %92
V:5
 G, | G,4 | G,4- | G, z (G,F,) | (G,3 F,) | G,2- G, z | C2 C B, | (A,4 | G,) G, G, B, | %9
 B, A, A, B, | B, A, A, B, | (G,=A, =B,2) | C z CC | C2- C z | C2- C z | C2- C z | C4- | C2 C C | %18
 C C C B, | B, B, B, B, | (G,3 F, | B,2 D2 | E2) E z | D3 =E | D=E D2 | E2 D2 | D D =B, D | %27
 D C C _B, | B, A, A, B, | B, B, A, A, | G,=A, =B,2 | C2- C z | z2 z [G,B,] | [F,A,]2 [F,A,] z | %34
 z2 G, B, | B, A, A, B, | B, B, A, A, | (G,=A, =B,2) | C2 z C | C2 C2 | C4- | C3 C | C C C z | %43
 z =A, A, A, | =A, A, _A, A, | G,2 G, B, | B, A, A, B, | B, B, A, A, | (G,=A, =B,2) | %49
 [C,,C,C]2- [C,,C,C] z | z4 | z4 | z4 | G,2 G, z | z2 z B, | [F,A,]2 [F,A,] z | z4 | z2 A,2 | %58
 G,2 G, B, | B, A, A, B, | B, B, A, A, | (G,=A, =B,2) | C2 z2 | z2 G, B, | B, A, A, B, | %65
 B, B, A, A, | G,2 (G,=A,) | =B, B, B, B, | C2 C2- | C z z2 | z2 G, B, | B, A, A, B, | %72
 B, B, A, A, | G,2 G,2 | G, =B, B, B, | C2 C2- | C z z2 | z2 C C | C C C C | D D C C | E2 E2 | %81
 D D D D | (E4 | C2) C2 | (C2 B,2 | A,2) A,2 | (C2 B,2 | A,2) A,2 | G,2 G,2 | A,2 A,2 | G,4 | %91
 G,2- G, |] %92
V:6
 [C,,C,] | [C,,C,]4 | [C,,C,]4- | [C,,C,] x [C,,C,]2 | [C,,C,]4 | [C,,C,]2- [C,,C,] z | %6
 F,,2 F,, F,, | (F,,4 | C,) C, [C,,C,] [C,,C,] | [F,,C,] [F,,C,] [F,,C,] G,, | B,, B,, B,, B,, | %11
 (E,2 D,2) | [C,,C,] z C,C, | [F,,C,]2- [F,,C,] z | A,,2- A,, z | G,,2- G,, z | [F,,A,]4- | %17
 [F,,A,]2 F,, F,, | G,, C, F,, G,, | D, D, D, D, | [E,,B,,]4- | [E,,B,,]4 | [E,,E,]2 [E,,E,] z | %23
 [D,,D,]4- | [D,,D,]4 | [D,,D,]2 [D,,D,]2 | [G,,D,] [G,,D,] G,, G,, | C, C, C, C, | %28
 [F,,C,] [F,,C,] [F,,C,] G,, | D, D, D, D, | [E,,E,]2 [D,,D,]2 | [C,,C,]2- [C,,C,] z | x3 C, | %33
 F,,2 F,, z | x2 [C,,C,] [C,,C,] | [F,,C,] [F,,C,] [F,,C,] G,, | B,, B,, B,, B,, | %37
 ([E,,E,]2 [D,,D,]2) | [C,,C,]2 x C, | [F,,C,]2 [F,,C,]2 | [F,,C,]4- | [F,,C,]3 [A,,E,] | %42
 [G,,E,] [G,,E,] [G,,E,] z | x [F,,C,] [F,,C,] [F,,C,] | [F,,C,] [F,,C,] [F,,C,] [F,,C,] | %45
 C,2 [C,,C,] [C,,C,] | [F,,C,] [F,,C,] [F,,C,] G,, | B,, B,, B,, B,, | ([E,,E,]2 [D,,D,]2) | x4 | %50
 x4 | x4 | x4 | [C,,C,]2 [C,,C,]2 | x3 [C,G,] | [F,,C,]2 [F,,C,] z | x4 | x2 [F,,C,]2 | C,2 C, C, | %59
 [F,,C,] [F,,C,] [F,,C,] G,, | B,, B,, B,, B,, | (E,2 D,2) | [C,,C,]2 z2 | x2 [C,,C,] [C,,C,] | %64
 [F,,C,] [F,,C,] [F,,C,] G,, | B,, B,, B,, B,, | [E,,E,]2 [E,,E,]2 | %67
 [D,,D,] [D,,D,] [D,,D,] [D,,D,] | [C,,C,]2 [C,,C,]2- | [C,,C,] x3 | x2 [C,,C,] [C,,C,] | %71
 [F,,C,] [F,,C,] [F,,C,] G,, | B,, B,, B,, B,, | [E,,E,]2 [E,,E,]2 | %74
 [D,,D,] [D,,D,] [D,,D,] [D,,D,] | [C,,C,]2 [C,,C,]2- | [C,,C,] x3 | z2 C C | F, F, F, G, | %79
 B, B, B, B, | [E,B,]2 [E,B,]2 | G, G, G, G, | (C4 | F,2) F,2 | ([C,G,-]4 | [F,,G,]2) [F,,F,]2 | %86
 (C,4- | [F,,C,]2) [F,,C,]2 | [C,,C,]2 [C,,C,]2 | [F,,C,]2 [F,,D,]2 | [C,,E,]4 | %91
 [C,,E,]2- [C,,E,] |] %92
V:7
 x | x4 | x4 | x4 | x4 | x4 | x4 | x4 | x4 | x4 | x4 | (E,,2 D,,2) | x4 | x4 | x4 | x4 | x4 | x4 | %18
 x4 | x4 | x4 | x4 | x4 | x4 | x4 | x4 | x4 | x4 | x4 | x4 | x4 | x4 | x4 | x4 | x4 | x4 | x4 | %37
 x4 | x4 | x4 | x4 | x4 | x4 | x4 | x4 | x4 | x4 | x4 | x4 | x4 | x4 | x4 | x4 | x4 | x4 | x4 | %56
 x4 | x4 | x4 | x4 | x4 | (E,,2 D,,2) | x4 | x4 | x4 | x4 | x4 | x4 | x4 | x4 | x4 | x4 | x4 | x4 | %74
 x4 | x4 | x4 | x4 | x4 | x4 | x4 | x4 | x4 | x4 | x4 | x4 | x4 | x4 | x4 | x4 | x4 | x3 |] %92
V:8
!p! [EG] | [EG]4 | G4- | G z (G F) | (G3 A) | G2- G z | (cB) A G | (F3 C | G) G!p!!<(! G B!<)! | %9
!>(! B!>)! A!<(! A!<)! G |!>(! G!>)! F!<(! E!<)! F |!>(! G4!>)! | [EG] z [Ec][Gc] | c2- c z | %14
!<(! c2- c z!<)! | c2- c z |!mf!!>(! c4-!>)! | c2!p! B A |!>(! G!>)! B!<(! A!<)! G | %19
!>(! G!>)! F!<(! E!<)! F | (G2 Bc | [DB]2 [Ac]2 | B2) G z | d=edc | =B=ABd | dc =B[=Ad] | %26
!>(! [=Bd]!>)! G!p!!<(! G!<)! G |!>(! G!>)! G!<(! G!<)! B |!>(! B!>)! A!<(! A!<)! G | %29
!>(! G!>)! F!<(! E!<)! F | G4 | G2- G z | z2 z!p! [EB] |!>(! [FA]2 [FA]!>)! z | z2!p!!<(! G!<)! B | %35
!>(! B!>)! A!<(! A!<)! G |!>(! G!>)! F!<(! E!<)! F |!>(! G4!>)! | G2 z!p! c | c2 c2 | c4- | %41
 c3!<(! c | c!<)! c c z | z!mf! c c c | c c c c | c2!p!!<(! G!<)! B |!>(! B!>)! A!<(! A!<)! G | %47
!>(! G!>)! F!<(! E!<)! F |!>(! G4!>)! | (G2 F) z | z4 | z4 | z4 |!p!!>(! G2!>)! G z | %54
 z2 z!p!!<(! B!<)! |!>(! A2!>)! A z | z4 | z2 c2 | c2!p!!<(! G!<)! B |!>(! B!>)! A!<(! A!<)! G | %60
!>(! G!>)! F!<(! E!<)! F |!>(! G4!>)! | [EG]2 z2 | z2!p!!<(! G!<)! B |!>(! B!>)! A!<(! A!<)! G | %65
!>(! G!>)! F!<(! E!<)! F |!>(! G2!>)! G2 | G G G G | G2 G2- | G z z2 | z2!p!!<(! G!<)! B | %71
!>(! B!>)! A!<(! A!<)! G |!>(! G!>)! F!<(! E!<)! F |!>(! G2!>)! G2 | G G G G |!>(! G2!>)! G2- | %76
 G z z2 | z2!f! [Ece] [Gcg] | [Gcg] [Fcf] [Fcf] [EBe] | [Fdf] [Fdf] [Ece] [Fdf] | [Geg]2 [Geg]2 | %81
 [Gdg] [Gdg] [Gdg] [Gdg] | ([G-eg-]4 |!>(! [Gcg]2)!>)! [Fcf]2 |!mf! (([Ee]2 [Dd]2 | %85
!>(! [Cc]2))!>)! [Cc]2 | G4- |!>(! G2!>)! F2 |!p! !tenuto!E2 !tenuto!E2 | !tenuto!E2 !tenuto!D2 | %90
!>(! !tenuto!C4!>)! |!>(! C2- C!>)! |] %92
V:9
 G, | G,4 | G,4- | G, z (G,F,) | (G,3 F,) | G,2- G, z | C2 C B, | (A,4 | G,) G, G, B, | %9
 B, A, A, B, | B, A, A, B, | (G,=A, =B,2) | C z CC | C2- C z | C2- C z | C2- C z | C4- | C2 C C | %18
 C C C B, | B, B, B, B, | (G,3 F, | B,2 D2 | E2) E z | D3 =E | D=E D2 | E2 D2 | D D =B, D | %27
 D C C _B, | B, A, A, B, | B, B, A, A, | G,=A, =B,2 | C2- C z | z2 z [G,B,] | [F,A,]2 [F,A,] z | %34
 z2 G, B, | B, A, A, B, | B, B, A, A, | (G,=A, =B,2) | C2 z C | C2 C2 | C4- | C3 C | C C C z | %43
 z =A, A, A, | =A, A, _A, A, | G,2 G, B, | B, A, A, B, | B, B, A, A, | (G,=A, =B,2) | %49
 [C,,C,C]2- [C,,C,C] z | z4 | z4 | z4 | G,2 G, z | z2 z B, | [F,A,]2 [F,A,] z | z4 | z2 A,2 | %58
 G,2 G, B, | B, A, A, B, | B, B, A, A, | (G,=A, =B,2) | C2 z2 | z2 G, B, | B, A, A, B, | %65
 B, B, A, A, | G,2 (G,=A,) | =B, B, B, B, | C2 C2- | C z z2 | z2 G, B, | B, A, A, B, | %72
 B, B, A, A, | G,2 G,2 | G, =B, B, B, | C2 C2- | C z z2 | z2 C C | C C C C | D D C C | E2 E2 | %81
 D D D D | (E4 | C2) C2 | (C2 B,2 | A,2) A,2 | (C2 B,2 | A,2) A,2 | G,2 G,2 | A,2 A,2 | G,4 | %91
 G,2- G, |] %92
V:10
 [C,,C,] | [C,,C,]4 | [C,,C,]4- | [C,,C,] x [C,,C,]2 | [C,,C,]4 | [C,,C,]2- [C,,C,] z | %6
 F,,2 F,, F,, | (F,,4 | C,) C, [C,,C,] [C,,C,] | [F,,C,] [F,,C,] [F,,C,] G,, | B,, B,, B,, B,, | %11
 (E,2 D,2) | [C,,C,] z C,C, | [F,,C,]2- [F,,C,] z | A,,2- A,, z | G,,2- G,, z | [F,,A,]4- | %17
 [F,,A,]2 F,, F,, | G,, C, F,, G,, | D, D, D, D, | [E,,B,,]4- | [E,,B,,]4 | [E,,E,]2 [E,,E,] z | %23
 [D,,D,]4- | [D,,D,]4 | [D,,D,]2 [D,,D,]2 | [G,,D,] [G,,D,] G,, G,, | C, C, C, C, | %28
 [F,,C,] [F,,C,] [F,,C,] G,, | D, D, D, D, | [E,,E,]2 [D,,D,]2 | [C,,C,]2- [C,,C,] z | x3 C, | %33
 F,,2 F,, z | x2 [C,,C,] [C,,C,] | [F,,C,] [F,,C,] [F,,C,] G,, | B,, B,, B,, B,, | %37
 ([E,,E,]2 [D,,D,]2) | [C,,C,]2 x C, | [F,,C,]2 [F,,C,]2 | [F,,C,]4- | [F,,C,]3 [A,,E,] | %42
 [G,,E,] [G,,E,] [G,,E,] z | x [F,,C,] [F,,C,] [F,,C,] | [F,,C,] [F,,C,] [F,,C,] [F,,C,] | %45
 C,2 [C,,C,] [C,,C,] | [F,,C,] [F,,C,] [F,,C,] G,, | B,, B,, B,, B,, | ([E,,E,]2 [D,,D,]2) | x4 | %50
 x4 | x4 | x4 | [C,,C,]2 [C,,C,]2 | x3 [C,G,] | [F,,C,]2 [F,,C,] z | x4 | x2 [F,,C,]2 | C,2 C, C, | %59
 [F,,C,] [F,,C,] [F,,C,] G,, | B,, B,, B,, B,, | (E,2 D,2) | [C,,C,]2 z2 | x2 [C,,C,] [C,,C,] | %64
 [F,,C,] [F,,C,] [F,,C,] G,, | B,, B,, B,, B,, | [E,,E,]2 [E,,E,]2 | %67
 [D,,D,] [D,,D,] [D,,D,] [D,,D,] | [C,,C,]2 [C,,C,]2- | [C,,C,] x3 | x2 [C,,C,] [C,,C,] | %71
 [F,,C,] [F,,C,] [F,,C,] G,, | B,, B,, B,, B,, | [E,,E,]2 [E,,E,]2 | %74
 [D,,D,] [D,,D,] [D,,D,] [D,,D,] | [C,,C,]2 [C,,C,]2- | [C,,C,] x3 | z2 C C | F, F, F, G, | %79
 B, B, B, B, | [E,B,]2 [E,B,]2 | G, G, G, G, | (C4 | F,2) F,2 | ([C,G,-]4 | [F,,G,]2) [F,,F,]2 | %86
 (C,4- | [F,,C,]2) [F,,C,]2 | [C,,C,]2 [C,,C,]2 | [F,,C,]2 [F,,D,]2 | [C,,E,]4 | %91
 [C,,E,]2- [C,,E,] |] %92
V:11
 x | x4 | E4- | E x (E D) | (E3 D) | E2- E z | C2 C C | (C4 | E) E E G | G F F E | D D C D | %11
 (E2 F2) | x4 | F2- F z | E2- E z | E2- E z | E4- | E2 E E | E G F E | D D C D | (E4 | x4 | %22
 G2) G z | G4 | G4 | G2 ^F2 | G G D F | F E E G | G F F E | D D C D | (E2 F2) | E2- E z | x4 | x4 | %34
 x2 E G | G F F E | D D C D | (E2 F2) | E2 x C | C2 C2 | C4- | C3 C | C C C z | x C C C | C C C C | %45
 C2 E G | G F F E | D D C D | (E2 F2) | (E2 D) z | x4 | x4 | x4 | E2 E z | x3 E | F2 F z | x4 | %57
 x2 D2 | E2 E G | G F F E | D D C D | (E2 F2) | x4 | x2 E G | G F F E | D D C D | E2 E2 | F F F F | %68
 E2 E2- | E x3 | x2 E G | G F F E | D D C D | E2 E2 | F F F F | E2 E2- | E x3 | z2 c B | A A A B | %79
 B B B B | B2 B2 | B B B B | (c2 _B2 | A2) A2 | G4- | G2 F2 | (E2 D2 | C2) C2 | C2 B,2 | A,2 B,2 | %90
 C4 | C2- C |] %92
V:12
 x | x4 | x4 | x4 | x4 | x4 | x4 | x4 | x4 | x4 | x4 | (E,,2 D,,2) | x4 | x4 | x4 | x4 | x4 | x4 | %18
 x4 | x4 | x4 | x4 | x4 | x4 | x4 | x4 | x4 | x4 | x4 | x4 | x4 | x4 | x4 | x4 | x4 | x4 | x4 | %37
 x4 | x4 | x4 | x4 | x4 | x4 | x4 | x4 | x4 | x4 | x4 | x4 | x4 | x4 | x4 | x4 | x4 | x4 | x4 | %56
 x4 | x4 | x4 | x4 | x4 | (E,,2 D,,2) | x4 | x4 | x4 | x4 | x4 | x4 | x4 | x4 | x4 | x4 | x4 | x4 | %74
 x4 | x4 | x4 | x4 | x4 | x4 | x4 | x4 | x4 | x4 | x4 | x4 | x4 | x4 | x4 | x4 | x4 | x3 |] %92
V:13
 x | x4 | x4 | x4 | x4 | x4 | x4 | x4 | x4 | x4 | x4 | x4 | x4 | x4 | x4 | x4 | x4 | x4 | x4 | x4 | %20
 x4 | x4 | x4 | x4 | x4 | x4 | x4 | x4 | x4 | x4 | x4 | x4 | x4 | x4 | x4 | x4 | x4 | x4 | x4 | %39
 x4 | x4 | x4 | x4 | x4 | x4 | x4 | x4 | x4 | x4 | x4 | x4 | x4 | x4 | x4 | x4 | x4 | x4 | x4 | %58
 x4 | x4 | x4 | x4 | x4 | x4 | x4 | x4 | x4 | x4 | x4 | x4 | x4 | x4 | x4 | x4 | x4 | x4 | x4 | %77
 x4 | x4 | x4 | x4 | x4 | x4 | x4 | (c2 B2 | A2) A2 | x4 | x4 | x4 | x4 | x4 | x3 |] %92

